X:1
T:Quiet Nights Of Quiet Stars
C:Antonio Carlos Jobim
L:1/8
M:C
I:linebreak $
K:C
"D7" z E2 D E D3 | E D3 E4 |"Db7" z E2 D E D3 | E D3 E4 |$"Gm" z D2 C D C3 |"C4" D C3 F2 E2 |
"F" E4 D4 | z8Ox///||$"Fm" z G2 F G F3 |"Bb7" G F3 G4 |"E+" z F2 E F E3 |"A7" F E3 F4 |$
"Am" z E2 D E2 D2 |"D7" E2 D2 E2 D2 |"Dm" F2 E2"Dm/C" F2 E2 |
"Bø" F2 E2"Bb7" D2"_D.C. al Coda" C2 ||$Ox/"Fm" z2 c2 _B_AGF |"Bb7" E4 D4 |"Em" z2 B2 AGFE |
"Am" D4 C4 |$"Dm" z2 A2 GFED |"G4" C B,3 C D3 |"Eø" G8 |"Eb7" z8 |$"Dm" z2 A2 GFED |
"Db7" C B,3 C D3 |"C" C8 |"C6" z8 |]

